assets/altair/logo.svg

<svg width="64" height="64" viewBox="0 0 64 64" fill="none" xmlns="http://www.w3.org/2000/svg">
<path d="M64 0H0V64H64V0Z" fill="black"/>
<path d="M41.7045 24.8635C41.5851 25.1795 34.7486 21.6775 30.4871 24.6878C27.9854 26.7537 27.0879 30.1528 27.9854 33.1408C28.4701 34.7544 28.7054 35.4149 29.5015 36.5521C30.0852 37.386 30.904 38.2959 32.041 38.9402C32.3003 39.1317 35.7838 41.2298 40.0135 40.7319C46.6664 39.9494 51.8206 31.2143 51.8206 31.2143C51.8206 31.2143 50.6203 33.7975 50.5095 34.0334C47.2966 40.8716 41.9579 42.6942 41.9579 42.6942C37.2123 44.3143 32.4627 42.2405 31.9386 41.9766C28.5112 40.2524 27.0323 38.6601 26.5716 37.7951C25.8206 36.3842 23.9378 30.8721 25.742 26.7537C27.0791 23.7014 29.9815 22.4239 30.3237 22.2804C35.8469 19.9632 41.8132 24.5765 41.7045 24.8635Z" fill="url(#paint0_linear)"/>
<path d="M41.7055 24.8635C41.481 25.0724 39.8688 23.1275 37.2802 21.7229C36.5401 21.3214 33.7167 19.8783 30.2681 19.9524C24.5516 20.0746 20.7526 24.2896 20.0752 25.0708C16.6892 28.975 15.095 34.987 16.9995 39.6652C19.4746 45.7447 28.0312 49.9947 27.1572 49.2869L26.3995 48.9991C25.5254 48.6529 14.8001 43.8748 14.4159 34.1984C14.1993 28.746 15.9435 24.3302 16.9995 23.1248C18.8447 21.0187 20.3243 20.0047 21.5716 19.335C24.0778 17.9903 28.7913 16.8379 32.2896 17.3673C36.2146 17.9614 38.6784 20.7155 39.8798 22.0586C40.9637 23.2698 41.8867 24.6947 41.7055 24.8635Z" fill="url(#paint1_linear)"/>
<path d="M30.3247 22.2811C29.529 22.7164 28.819 23.2934 28.2297 23.984C27.7401 24.5643 26.8663 25.7966 26.4343 28.5777C26.0639 30.9612 25.6556 33.5902 26.9024 36.4385C28.9272 41.0618 33.6969 42.5837 34.8341 42.9467C37.7423 43.8403 40.8549 43.8116 43.7463 42.8647C47.3045 41.7127 49.7931 39.3316 50.0119 39.6101C50.1473 39.783 49.2312 40.7473 48.5953 41.3366C46.6545 43.0985 44.2772 44.3057 41.7117 44.8318C39.9035 45.1921 38.0465 45.237 36.223 44.9646C34.725 44.7444 30.2688 44.0946 26.8465 40.2945C25.8882 39.2301 23.1852 36.2293 23.3965 31.9831C23.549 28.9242 25.1367 26.7628 25.6752 26.0495C26.9098 24.4461 28.5022 23.1555 30.3247 22.2811Z" fill="url(#paint2_linear)"/>
<path d="M41.7047 24.8635C41.9698 24.7453 41.3689 21.4405 39.0277 18.6871C38.0837 17.5745 36.947 16.6418 35.6722 15.9338C30.403 13.0647 24.28 15.5159 22.8776 16.0778C21.441 16.6531 18.337 17.9438 15.7636 21.1693C12.8628 24.8055 12.4333 28.7066 12.2681 30.4143C11.5624 37.7058 15.2564 43.4579 15.6051 43.3459C15.8719 43.2602 14.0494 39.652 14.4151 34.1984C14.5544 32.1222 14.8542 28.3861 17.4749 24.7362C19.0624 22.5835 21.1409 20.843 23.5367 19.66C24.9231 18.972 29.6278 16.6367 34.5952 18.3979C36.1087 18.9454 37.5022 19.7813 38.6988 20.8593C40.8615 22.8449 41.4876 24.9607 41.7047 24.8635Z" fill="url(#paint3_linear)"/>
<path d="M32.8279 44.9369C32.7034 45.1496 25.6243 43.2456 22.3957 37.1733C21.9098 36.2598 19.3668 31.4391 20.8391 27.6483C21.4548 26.0626 22.667 24.2876 23.1566 23.7362C23.9474 22.8457 25.6818 22.6384 27.3855 21.9129C28.1511 21.5946 29.0084 21.5231 29.8299 21.4134C30.6442 21.3126 31.3659 21.3343 32.1826 21.4134C33.2921 21.4867 37.8595 22.8888 36.3245 22.6464C34.884 22.419 31.6491 21.6298 29.8299 22.6464C29.6637 22.7393 29.4762 22.8577 29.3752 22.9215C27.9058 23.8454 26.6285 25.0455 25.6138 26.4557C25.2608 26.9569 23.7569 29.1511 23.6379 31.9845C23.4903 35.5298 25.4294 38.1163 26.5738 39.6433C29.4631 43.495 32.9179 44.7845 32.8279 44.9369Z" fill="url(#paint4_linear)"/>
<path d="M29.3879 19.7981C30.879 19.5821 32.155 19.5077 33.6334 19.7981C35.3299 20.1404 36.2684 20.4932 37.424 21.0868C39.3975 22.1008 41.8954 24.7006 41.7051 25.0911C41.3662 25.7865 33.2451 19.728 26.7787 22.5053C23.2961 24.0009 20.9313 28.4181 20.6017 29.0858C19.8072 30.5586 19.7598 31.7889 19.6874 33.4612C19.633 35.4472 20.1892 37.0173 20.6966 38.4492C21.4185 40.4872 22.5804 42.6608 22.555 42.6727C22.5538 42.6727 22.5496 42.6674 22.5484 42.666C18.7629 37.1245 18.3589 34.511 18.3589 34.511C18.1881 33.4073 17.459 28.6918 20.6017 24.7109C23.4669 21.0821 28.2765 19.9606 29.3879 19.7981Z" fill="url(#paint5_linear)"/>
<defs>
<linearGradient id="paint0_linear" x1="38.4021" y1="21.6317" x2="38.4021" y2="43.3072" gradientUnits="userSpaceOnUse">
<stop stop-color="#FAB961"/>
<stop offset="1"/>
</linearGradient>
<linearGradient id="paint1_linear" x1="28.063" y1="17.2358" x2="28.063" y2="49.364" gradientUnits="userSpaceOnUse">
<stop stop-color="#FAB961"/>
<stop offset="1"/>
</linearGradient>
<linearGradient id="paint2_linear" x1="36.7051" y1="22.2811" x2="36.7051" y2="45.1401" gradientUnits="userSpaceOnUse">
<stop stop-color="#FAB961"/>
<stop offset="1"/>
</linearGradient>
<linearGradient id="paint3_linear" x1="26.9706" y1="14.5671" x2="26.9706" y2="43.3473" gradientUnits="userSpaceOnUse">
<stop/>
<stop offset="0.414296" stop-color="#FAB961"/>
</linearGradient>
<linearGradient id="paint4_linear" x1="27.3155" y1="21.5485" x2="27.3155" y2="44.9526" gradientUnits="userSpaceOnUse">
<stop/>
<stop offset="1" stop-color="#FAB961"/>
</linearGradient>
<linearGradient id="paint5_linear" x1="29.9393" y1="20.1707" x2="29.9393" y2="42.6727" gradientUnits="userSpaceOnUse">
<stop/>
<stop offset="1" stop-color="#FAB961"/>
</linearGradient>
</defs>
</svg>

<svg viewBox="0 0 64 64" xmlns="http://www.w3.org/2000/svg">
    <path fill-rule="evenodd" d="M64 32C64 14.327 49.673 0 32 0 14.327 0 0 14.327 0 32c0 17.673 14.327 32 32 32 17.673 0 32-14.327 32-32Z"/>
    <linearGradient id="a" x1="38.402" y1="21.632" x2="38.402" y2="43.307" gradientUnits="userSpaceOnUse">
        <stop offset="0" stop-color="#fab961"/>
        <stop offset="1"/>
    </linearGradient>
    <path fill="url(#a)" d="M41.704 24.864c-.119.316-6.955-3.187-11.217-.176-2.502 2.066-3.4 5.465-2.502 8.453.485 1.613.72 2.274 1.516 3.411.584.834 1.403 1.744 2.54 2.388.26.192 3.743 2.29 7.973 1.792 6.652-.783 11.807-9.518 11.807-9.518s-1.2 2.584-1.312 2.82c-3.212 6.838-8.551 8.66-8.551 8.66-4.746 1.62-9.495-.453-10.02-.717-3.427-1.725-4.906-3.317-5.366-4.182-.751-1.41-2.634-6.923-.83-11.041 1.337-3.053 4.24-4.33 4.582-4.474 5.523-2.317 11.49 2.296 11.38 2.584Z"/>
    <linearGradient id="b" x1="28.063" y1="17.236" x2="28.063" y2="49.364" gradientUnits="userSpaceOnUse">
        <stop offset="0" stop-color="#fab961"/>
        <stop offset="1"/>
    </linearGradient>
    <path fill="url(#b)" d="M41.706 24.864c-.225.208-1.837-1.736-4.426-3.141-.74-.402-3.563-1.845-7.012-1.77-5.716.122-9.515 4.337-10.193 5.118-3.386 3.904-4.98 9.916-3.075 14.594 2.475 6.08 11.031 10.33 10.157 9.622l-.758-.288c-.874-.346-11.599-5.124-11.983-14.8-.217-5.453 1.527-9.869 2.584-11.074 1.845-2.106 3.324-3.12 4.572-3.79 2.506-1.345 7.22-2.497 10.718-1.968 3.925.594 6.388 3.348 7.59 4.692 1.084 1.21 2.007 2.636 1.826 2.805Z"/>
    <linearGradient id="c" x1="36.705" y1="22.281" x2="36.705" y2="45.14" gradientUnits="userSpaceOnUse">
        <stop offset="0" stop-color="#fab961"/>
        <stop offset="1"/>
    </linearGradient>
    <path fill="url(#c)" d="M30.325 22.281a7.462 7.462 0 0 0-2.095 1.703c-.49.58-1.364 1.813-1.796 4.594-.37 2.383-.778 5.012.468 7.86 2.025 4.624 6.795 6.146 7.932 6.509a14.73 14.73 0 0 0 8.912-.082c3.559-1.152 6.047-3.533 6.266-3.255.135.173-.78 1.137-1.417 1.727a14.607 14.607 0 0 1-6.883 3.495c-1.809.36-3.665.405-5.489.133-1.498-.22-5.954-.87-9.377-4.67-.958-1.065-3.66-4.066-3.45-8.312.153-3.059 1.74-5.22 2.28-5.934a12.925 12.925 0 0 1 4.649-3.768Z"/>
    <linearGradient id="d" x1="26.971" y1="14.567" x2="26.971" y2="43.347" gradientUnits="userSpaceOnUse">
        <stop offset="0"/>
        <stop offset=".414" stop-color="#fab961"/>
    </linearGradient>
    <path fill="url(#d)" d="M41.705 24.864c.265-.119-.336-3.424-2.677-6.177a12.115 12.115 0 0 0-3.356-2.753c-5.269-2.87-11.392-.418-12.794.144-1.437.575-4.541 1.866-7.114 5.091-2.901 3.636-3.33 7.538-3.496 9.245-.706 7.292 2.988 13.044 3.337 12.932.267-.086-1.556-3.694-1.19-9.148.14-2.076.44-5.812 3.06-9.462a16.743 16.743 0 0 1 6.062-5.076c1.386-.688 6.09-3.023 11.058-1.262a12.468 12.468 0 0 1 4.104 2.461c2.163 1.986 2.789 4.102 3.006 4.005Z"/>
    <linearGradient id="e" x1="27.316" y1="21.549" x2="27.316" y2="44.953" gradientUnits="userSpaceOnUse">
        <stop offset="0"/>
        <stop offset="1" stop-color="#fab961"/>
    </linearGradient>
    <path fill="url(#e)" d="M32.828 44.937c-.125.213-7.204-1.691-10.432-7.764-.486-.913-3.03-5.734-1.557-9.525.616-1.585 1.828-3.36 2.318-3.912.79-.89 2.525-1.098 4.229-1.823.765-.318 1.622-.39 2.444-.5.814-.1 1.536-.079 2.353 0 1.11.074 5.677 1.476 4.142 1.233-1.441-.227-4.676-1.016-6.495 0a13.462 13.462 0 0 0-4.216 3.81c-.353.5-1.857 2.695-1.976 5.529-.148 3.545 1.791 6.131 2.936 7.658 2.89 3.852 6.344 5.142 6.254 5.294Z"/>
    <linearGradient id="f" x1="29.939" y1="20.171" x2="29.939" y2="42.673" gradientUnits="userSpaceOnUse">
        <stop offset="0"/>
        <stop offset="1" stop-color="#fab961"/>
    </linearGradient>
    <path fill="url(#f)" d="M29.388 19.798c1.491-.216 2.767-.29 4.245 0 1.697.342 2.635.695 3.791 1.289 1.973 1.014 4.471 3.614 4.281 4.004-.339.695-8.46-5.363-14.926-2.586-3.483 1.496-5.848 5.913-6.177 6.58-.795 1.474-.842 2.704-.915 4.376-.054 1.986.502 3.556 1.01 4.988.722 2.038 1.883 4.212 1.858 4.224l-.007-.007c-3.785-5.541-4.19-8.155-4.19-8.155-.17-1.104-.899-5.82 2.244-9.8 2.865-3.629 7.675-4.75 8.786-4.913Z"/>
</svg>
